X: 1
M: 3/4
L: 1/4
K: F
[| "F"Acc | dcA | "C7"cBG | "F"AF2 | Acc | dcA | "C7"c/c/BG | "F"AF2 ||
|| "C7"G/G/ED | CB2 | A/A/GG | "F"F3 | "C7"G/G/ED | CB2 | A/c/GG/E/ | "F"F3 |]
